X: 11301
T: Magie Lawder
T: Maggie Lauder
%R: strathspey, reel
B: James Oswald "The Caledonian Pocket Companion" v.1 b.1 p.30 (continued on p.31)
Z: 2020 John Chambers <jc:trillian.mit.edu>
M: C|
L: 1/16
K: D
|: "_Brisk"\
d3ed2f2 d3ed2f2 | e3f (gfe)d c4 (e3f/g/) |\
f2d2d2d2 d3ed2f2 | a3b abag Tf4a4 |\
g3ag2b2 f3gf2a2 | e3f (gf)(ed) Tc4e4 |
(dc)(BA) (BA)(GF) (GF)(ED) E2g2 | (fga2) e3f d4D4 ::\
(fga2) d2g2 fgaf d3f | e3f (gf)(ed) Tc4e4 |\
(fga2) d2g2 (fg)a2 d3f |
a3b abag Tf4a4 |\
(gfg)a g2b2 fefg f2a2 | e3f (gfed) Tc4e4 |\
(dc)(BA) (BA)(GF) (GF)(ED) E3g | (fga2) e3f d4D4 :|
|:\
"^Variation"D3ED2g2 (ag)(fe) d2f2 | e3f (gf)(ed) c4{cd}e4 |\
C3ED2g2 fgaf defg | agab abag Tf4a4 |\
(gd)b2 (gd)b2 (fd)(ad) (fd)(af) |
e3f (gf)(ed) Tc4{cd}e4 |\
dfed cBAG FAdF E2g2 | fgab f2(ge) d4D4 ::\
fadf AdFA DFA2 dfa2 | e2E2 (gf)(ed) c4 e3f/g/ |
f(dcd) (dcd)d dABc defg | ad'c'b agfg Tf4a4 |\
g2b4(ag) afdA Fdfa | e3f gefd Tc4{cd}e4 |
(dc)(BA) (BA)(GF) (GF)(ED) E2g2 | (fg)a2 e3f d4D4 ::\
DFAd Adfa dfad' d3f | (efg)f ecAd c4{cd}e4 |
DFAd Adfa dfad' defg | adbd add'd f4{fg}a4 |\
bgdB G3b afdA F3a | geEf gefd c4{cd}e4 |
"^P.31" dgfA BdBG FAdF E2g2 | (fga2) e3f d4D4 ::\
fadf AdFA DFAd FAdf | efef gfed c4(e3f/g/) |
fgaf dAeg (fga)f defg | agab abag f4{fg}a4 |\
gbbd' d'bag fabc' d'aTgf |
egfa gfed c4{cd}e4 |\
(3(dcB) (3(cBA) (3(BAG) (3(AGF) (3(GFE) (3(FED) E2g2 | (fga)f (efg)e d4D4 :|


